X: 76
T: No_38_War_Bundle_Song.krn
N: Derived from No_38_War_Bundle_Song.krn
%%abc-version 2.0
%%abcx-abcm2ps-target-version 5.9.1 (29 Sep 2008)
%%abc-creator hum2abc beta
%%abcx-conversion-date 2019/03/15 08:35:44
%%humdrum-veritas 3683023582
%%humdrum-veritas-data 674410346
%%linebreak <none>
%%barnumbers 0
L: 1/8
M: 2/4
K: G clef=bass
[K:clef=bass][M:2/4]D2-DB,3//A,// | 
A,2A,G, | 
A,2B,A,3//G,// | 
G,2G,E, | 
G,2G,E,3//D,// | 
D,2D, z | 
A,2B,A,3//G,// | 
G,2G,E, | 
G,2-G,E,3//D,// | 
D,2D, z | 
D,2-D,B,,3//G,,// | 
G,,2G,, z | 
G,,2G,,G,, | 
G,,2G,, z |]  



